X:1
T:S'io non v'amo
T:Huomo Buono Morsolino
T:Source: Primo libro delle canzonette a tre voci---Venetia---R.Amadino---1594. Editor : André Vierendeels (15/08/17).
T:Notes : Original clefs : G2, G2, F3 Editorial accidentals above the staff
T:S'io non v'amo
T:©
T:©
C:Huomo Buono Morsolino
Z:©
%%score [ 1 2 3 ]
L:1/8
Q:1/4=120
M:4/4
K:C
V:1 treble nm="Soprano 1" snm="S 1"
V:2 treble nm="Soprano 2" snm="S 2"
V:3 bass nm="Bass" snm="B"
V:1
 e8 | d2 c2 B2 c2 | d4 d2 d2 | d6 e2 | e6 f2 | f2 ed e4 |[M:2/4] d4 ::[M:4/4] f2 f4 e2 | %8
w: S'io|non v'a- mo cor|mi- o, vi|ven- ghi'o-|gn'hor de-|si- * * *|o.|Di dar- mi|
w: Cor|mio s'io non v'a-|do- ro, e|se per|voi non|mo- * * *|ro.|O- gni fa-|
w: E|se nel cuor scol-|pi- ta, non|v'ho dol-|ce mia|vi- * * *|ta.|Sian sem- pre'a|
w: Ma|se st'al- ma me-|schi- na, de-|vo- t'a|voi s'in-|chi- * * *|na.|E sol voi|
 d2 d2 e2 e2 | g2 f4 e2 | d3 c d4 | e6 dc | B4 !fermata!A4 :| %13
w: pe- n'e gua- i,|ne'in voi pie-|tà di me|tro- vi gia-|ma- i.|
w: t'o- gni sor- te,|sian sem- pre|con giu- ra-|ti'a dar- mi|mor- te.|
w: dar- mi pe- ne,|d'A- mor tut-|te le fiam-|m'e le ca-|te- ne.|
w: bra- ma'in ter ra.|Da- te'ho- mai|pa- ce'al- la|mia lun- ga|guer- ra.|
V:2
 c8 | B2 A2 G2 A2 | B4 B4- | B2 B2 B4- | B2 c2 c4 |"^#" d2 d4 c2 |[M:2/4] d4 ::[M:4/4] A2 d4 c2 | %8
w: S'io|non v'a- mo cor|mi- o,|_ vi ven-|* ghi'o- gn'hor|de- si- *|o.|Di dar- mi|
w: Cor|mio s'io non v'a-|do- ro,|_ e se|_ per voi|non mo- *|ro.|O- gni fa-|
w: E|se nel cuor scol-|pi- ta,|_ non v'ho|_ dol- ce|mia vi- *|ta.|Sian sem- pre'a|
w: Ma|se st'al- ma me-|schi- na,|_ de- vo-|* t'a voi|s'in- chi- *|na.|E sol voi|
 A2 B2 c2 c2 | e2 d4 c2 | B3 A B4 | c6 BA | ^G4 !fermata!A4 :| %13
w: pe- n'e gua- i,|ne'in voi pie-|tà di me|tro- vi gia-|ma- i.|
w: t'o- gni sor- te,|sian sem- pre|con giu- ra-|ti'a dar- mi|mor- te.|
w: dar- mi pe- ne,|d'A- mor tut-|te le fiam-|m'e le ca-|te- ne.|
w: bra- ma'in ter- ra.|Da- te'ho- mai|pa- ce'al- la|mia lun- ga|guer- ra.|
V:3
 C8 | G,2 A,2 E,2 A,2 | G,4 G,4- | G,2 G,2 G,4- | G,2 A,2 A,4 | _B,4 A,4 |[M:2/4] D,4 :: %7
w: S'io|non v'a- mo cor|mi- o,|_ vi ven-|* chi'o- gn'hor|de- si-|o.|
w: Cor|mio s'io non v'a-|do- ro,|_ e se|_ per voi|non mo|ro.|
w: E|se nel cuor scol-|pi- ta,|_ non v'ho|_ dol- ce|mia vi-|ta.|
w: Ma|se st'al- ma me-|schi- na,|_ de- vo-|* t'a voi|s'in- chi-|na.|
[M:4/4] D,2 D,4 E,2 | ^F,2 G,2 C,2 C,2 | C,2 D,4 E,2 | G,3 A, G,2 G,2 | C,2 D,2 E,4- | %12
w: Di dar- mi|pe- n'e gua- i,|ne'in voi pir-|tà di me tro-|vi gia- ma-|
w: O- gni fa-|t'o- gni sor- te,|sian sem- pre|con giu- ra- ti'a|dar- mi mor-|
w: Sian sem- pre'a|dar- mi pe- ne,|d'A- mor tut-|te le fiam- m'e|le ca- te-|
w: E sol voi|bra- ma'in ter ra.|Da- te'ho- mai|pa- ce'al- la mia|lun- ga guer-|
 E,4 !fermata!A,,4 :| %13
w: * i.|
w: * te.|
w: * ne.|
w: * ra.|

